!!!!SEGMENT: pl-kk--kk-i-1--013-004_borek-krzysztof--missa-te-deum-laudamus-sanctus.krn
!!!cenid: 15xx:699
!!!COM: Borek, Krzysztof
!!!COM-rismid: pe30020454
!!!CDT:
!!!CNT:
!!!OPR: [Missa] Te Deum laudamus
!!!OTL: Sanctus
!!!OMV: 004
!!!PDT:
!!!AGN:
!!!SMS-siglum: PL-Kk
!!!SMS-shelfmark: Kk.I.1
!!!SMS-shelfwork: 013-004 M
!!!SMS-variant:
!!!SMS-altvar:
!!!NIFC-rismid: 300257967
!!!URL-scan: http://repozytorium.nifc.pl/skany/pl-kk-nut--i-1
!!!ONB-nifc: UWAGA: Cantus (s. 75r-81v, skan 0077-0084), Altus (s. 73r-78v, skan 0265-0271), Tenor (s. 71r-76r, skan 0460-0465), Bassus (s. 70v-76r, skan 0632-0637). Części Mszy: 1. Kyrie, 2. Et in terra, 3. Patrem, 4. Sanctus, 5. Agnus Dei
!!!key:
**kern	**text	**kern	**text	**kern	**text	**kern	**text
*part4	*part4	*part3	*part3	*part2	*part2	*part1	*part1
*staff4	*staff4	*staff3	*staff3	*staff2	*staff2	*staff1	*staff1
*I"BASSVS	*	*I"TENOR	*	*I"ALTVS	*	*I"CANTVS	*
*I'B	*	*I'T	*	*I'A	*	*I'C	*
*Ibass	*	*Itenor	*	*Ialto	*	*Isoprn	*
*ICvox	*	*ICvox	*	*ICvox	*	*ICvox	*
*clefF4	*	*clefC4	*	*clefC3	*	*clefC3	*
*k[]	*	*k[]	*	*k[]	*	*k[]	*
*a:	*	*a:	*	*a:	*	*a:	*
*M2/1	*	*M2/1	*	*M2/1	*	*M2/1	*
*met(C|)	*	*met(C|)	*	*met(C|)	*	*met(C|)	*
=1-	=1-	=1-	=1-	=1-	=1-	=1-	=1-
!!LO:TX:t=P:problem:sześciolinia
0r	.	0E	San-	1.e	San-	1r	.
.	.	.	.	.	.	0e	San-
.	.	.	.	4d/	.	.	.
.	.	.	.	4c/	.	.	.
=2-	=2-	=2-	=2-	=2-	=2-	=2-	=2-
*lig	*	*lig	*	*	*	*	*
1E	San-	1G	.	2B/	.	.	.
.	.	.	.	2.c/	.	.	.
1F	.	1A	.	.	.	2c/	.
.	.	.	.	4B/	.	.	.
.	.	.	.	1A/	.	2d\	.
*Xlig	*	*Xlig	*	*	*	*	*
=3-	=3-	=3-	=3-	=3-	=3-	=3-	=3-
0E	.	0B	.	.	.	0e	-ctus
.	.	.	.	4G/	.	.	.
.	.	.	.	4F/	.	.	.
.	.	.	.	1G	-ctus	.	.
=4-	=4-	=4-	=4-	=4-	=4-	=4-	=4-
2.AA/	.	0A	-ctus	2A/	.	2r	.
*	*	*	*	*	*	*	*ij
.	.	.	.	1c	.	1e	San-
4BB/	.	.	.	.	.	.	.
2C/	.	.	.	.	.	.	.
2D/	.	.	.	4B/	.	4d\	.
.	.	.	.	4A/	.	4c\	.
=5-	=5-	=5-	=5-	=5-	=5-	=5-	=5-
2E\	.	2r	.	2G/	.	2B/	.
*	*	*	*ij	*	*	*	*
2F\	.	1A	San-	2A/	.	2A/	.
!	!	!	!	!LO:SIC:v:t=custos c	!	!	!
2.E\	.	.	.	1B	.	0e	-ctus
.	.	4G/	.	.	.	.	.
4D/	.	4F/	.	.	.	.	.
!	!	!	!	!LO:LB:g=original	!	!	!
=6-	=6-	=6-	=6-	=6-	=6-	=6-	=6-
*	*	*	*	*lig	*ij	*	*
2C/	.	2E/	.	1c	San-	.	.
4BB/	.	1A	.	.	.	.	.
4AA/	.	.	.	.	.	.	.
1BB	.	.	.	1d	.	1r	.
.	.	2G/	.	.	.	.	.
*	*	*	*	*Xlig	*	*	*
=7-	=7-	=7-	=7-	=7-	=7-	=7-	=7-
!LO:SIC:v:t=custos E	!	!	!	!	!	!	!
*	*	*	*	*	*	*lig	*
1AA	-ctus	1A	-ctus	2A/	-ctus	1e	San-
*	*	*	*Xij	*	*Xij	*	*
.	.	.	.	2c/	D(o-	.	.
!LO:LB:g=original	!	!	!	!	!	!	!
*lig	*ij	*	*	*	*	*	*
1E	San-	1r	.	2B/	-mi)-	1g	.
.	.	.	.	2G/	-n(u)s	.	.
*	*	*	*	*	*	*Xlig	*
=8-	=8-	=8-	=8-	=8-	=8-	=8-	=8-
*	*	*lig	*	*	*	*	*
1G	.	1B	San-	0r	.	2.d\	-ctus
*	*	*	*	*	*	*	*Xij
.	.	.	.	.	.	4e\	.
*Xlig	*	*	*	*	*	*	*
2.D/	-ctus	1d	.	.	.	2f\	Do-
!	!	!	!	!	!	!LO:SIC:v:t=custos c	!
.	.	.	.	.	.	2f\	-mi-
4E\	.	.	.	.	.	.	.
*	*Xij	*Xlig	*	*	*	*	*
!	!	!	!	!	!	!LO:LB:g=original	!
=9-	=9-	=9-	=9-	=9-	=9-	=9-	=9-
!	!	!LO:SIC:v:t=custos B	!	!	!	!	!
2F\	Do-	1A	-ctus	1r	.	2c/	-nus
2F\	-mi-	.	.	.	.	2d\	De-
!	!	!LO:PB:g=original	!	!	!	!	!
1E	-nus	1B	Do-	2r	.	2e\	-us
.	.	.	.	2B/	Do-	1e\	Sab-
=10-	=10-	=10-	=10-	=10-	=10-	=10-	=10-
2r	.	2A/	-mi-	2c/	-mi-	.	.
*	*ij	*	*	*	*	*	*
2D/	Do-	2A/	-nus	2A/	-nus	1d	-ba-
2BB/	-mi-	1G	De-	2B/	de-	.	.
2C/	-nus	.	.	1G/	-us	4c/	.
*	*Xij	*	*	*	*	*	*
.	.	.	.	.	.	4B/	-oth
=11-	=11-	=11-	=11-	=11-	=11-	=11-	=11-
1AA	De-	1A	-us	.	.	1c	.
.	.	.	.	2F/	sab-	.	.
2GG/	-us	2B\	.	1.G	-ba-	2r	.
*	*	*	*	*	*	*	*ij
2C/	d(o-	1c\	Sab-	.	.	2.e\	Do-
=12-	=12-	=12-	=12-	=12-	=12-	=12-	=12-
2C/	-mi)-	.	.	.	.	.	.
.	.	.	.	.	.	4d\	   mi-
2GG/	-n(u)ſ	2B\	.	2d\	-oth	1g	-nus
*	*	*	*	*	*ij	*	*
1D	De-	1A	-ba-	2.d\	Do-	.	.
.	.	.	.	.	.	2f\	De-
.	.	.	.	4c/	-mi-	.	.
=13-	=13-	=13-	=13-	=13-	=13-	=13-	=13-
2GG/	-us	00G;	-oth.	2B/	-nus	2g\	-us
1C	Sab-	.	.	2c/	de-	1e	Sab-
.	.	.	.	2G/	-us	.	.
2C/	-ba-	.	.	1c\	sab-	2e\	-ba-
=14-	=14-	=14-	=14-	=14-	=14-	=14-	=14-
!	!	!	!	!	!	!LO:SIC:v:t=custos f	!
0GG;	-oth.	.	.	.	.	0d;<	-oth
*	*	*	*	*	*	*	*Xij
.	.	.	.	4B/	-ba-	.	.
.	.	.	.	4A/	.	.	.
!	!	!	!	!LO:SIC:v:t=custos A	!	!	!
!	!	!	!	!LO:N:vis=0	!	!	!
.	.	.	.	1B;	-oth	.	.
*	*	*	*	*	*Xij	*	*
!LO:LB:g=original	!	!	!	!LO:LB:g=original	!	!LO:LB:g=original	!
=15-	=15-	=15-	=15-	=15-	=15-	=15-	=15-
0r	.	0c	Ple-	1.A	Ple-	1f	Ple-
.	.	.	.	.	.	2f\	-ni
.	.	.	.	2A/	-ni	2f\	ſu(n)t
=16-	=16-	=16-	=16-	=16-	=16-	=16-	=16-
1r	.	1c	-ni	2G/	ſu(n)t	2g\	cae-
.	.	.	.	2G/	cae-	2e\	-li
1F	Ple-	0c	ſu(n)t	2A/	-li	2.f\	et
.	.	.	.	1c\	et	.	.
.	.	.	.	.	.	4e\	.
=17-	=17-	=17-	=17-	=17-	=17-	=17-	=17-
2F\	-ni	.	.	.	.	4f\	.
.	.	.	.	.	.	4g\	ter-
2F\	ſunt	.	.	4B/	t(er)-	2a\	-ra
.	.	.	.	4A/	.	.	.
2E\	cae-	1c	cae-	1e	-ra	1g	.
2C/	-li	.	.	.	.	.	.
=18-	=18-	=18-	=18-	=18-	=18-	=18-	=18-
!	!	!LO:SIC:v:t=custos A	!	!	!	!	!
2D\	et	1B	-li	1r	.	2r	.
2E\	.	.	.	.	.	1e	et
!	!	!LO:LB:g=original	!	!	!	!	!
1F	ter-	1A	et	2r	.	.	.
.	.	.	.	1A/	.	2d\	t(er)-
=19-	=19-	=19-	=19-	=19-	=19-	=19-	=19-
0E	-ra	0B	ter-	.	.	2e\	-ra
*	*	*	*	*	*	*	*ij
.	.	.	.	4G/	.	2g\	ple-
.	.	.	.	4F/	.	.	.
.	.	.	.	1G	.	2g\	-ni
.	.	.	.	.	.	2g\	ſu(n)t
=20-	=20-	=20-	=20-	=20-	=20-	=20-	=20-
0AA	.	0A	-ra	1A	.	2e\	cae-
.	.	.	.	.	.	2c/	-li
.	.	.	.	1r	.	2.e\	et
!	!	!	!	!	!	!LO:SIC:v:t=custos g	!
.	.	.	.	.	.	4f\	t(er)-
!	!	!	!	!	!	!LO:LB:g=original	!
=21-	=21-	=21-	=21-	=21-	=21-	=21-	=21-
2r	.	1E	ma-	1r	.	0g	-ra
*	*ij	*	*	*	*	*	*
2C/	ple-	.	.	.	.	.	.
*	*	*	*	*	*ij	*	*
2C/	-ni	1G	-ie-	1c	Ple-	.	.
2C/	ſunt	.	.	.	.	.	.
=22-	=22-	=22-	=22-	=22-	=22-	=22-	=22-
2AA/	cae-	1A	-ſta-	2c/	-ni	2r	.
!LO:SIC:v:t=custos f	!	!	!	!	!	!	!
2FF/	-li	.	.	2c/	ſu(n)t	2f\	ple-
!LO:PB:g=original	!	!	!	!	!	!	!
2.F\	et	1A	-tis	2A/	cae-	2f\	-ni
.	.	.	.	2F/	-li	2f\	ſu(n)t
4E/	.	.	.	.	.	.	.
=23-	=23-	=23-	=23-	=23-	=23-	=23-	=23-
2C/	.	1A	glo-	2c/	et	2e\	cae-
2D/	.	.	.	2F/	t(er)-	1d	-li
1E	ter-	1G	-ri-	1G	-ra	.	.
*	*	*	*	*	*Xij	*	*
.	.	.	.	.	.	2c/	et
=24-	=24-	=24-	=24-	=24-	=24-	=24-	=24-
1D	.	1A	-ae	2r	.	2d\	t(er)-
!	!	!	!	!LO:SIC:v:t=custos d	!	!	!
.	.	.	.	2d\	glo-	2d\	-ra
!	!	!	!	!LO:LB:g=original	!	!	!
*	*	*	*	*	*	*	*Xij
2GG/	-ra	2B\	.	2d\	-ri-	2r	.
*	*Xij	*	*	*	*	*	*
2C/	glo-	1c\	tu-	1e\	-a	2G/	glo-
=25-	=25-	=25-	=25-	=25-	=25-	=25-	=25-
2C/	-ri-	.	.	.	.	2G/	-ri-
2GG/	-a	2B\	.	4d\	tu-	1g	-a
.	.	.	.	4c\	.	.	.
1D	tu-	1A	.	0d	-a	.	.
.	.	.	.	.	.	2f\	tu-
=26-	=26-	=26-	=26-	=26-	=26-	=26-	=26-
!	!	!LO:SIC:v:t=custos E	!	!	!	!	!
1GG	-a	00.G;	-ae	.	.	1g	-a
2r	.	.	.	2r	.	2r	.
*	*ij	*	*	*	*ij	*	*ij
2GG/	glo-	.	.	2B/	glo-	2d\	glo-
=27-	=27-	=27-	=27-	=27-	=27-	=27-	=27-
2GG/	-ri-	.	.	2B/	-ri-	2d\	-ri-
2GG/	-a	.	.	2B/	-a	2d\	-a
1C	tu-	.	.	2.G/	tu-	4c/	tu-
.	.	.	.	.	.	4d\	.
.	.	.	.	.	.	4e\	.
.	.	.	.	4A/	.	4c/	.
=28-	=28-	=28-	=28-	=28-	=28-	=28-	=28-
0GG;	-a	.	.	1B	.	0d;	-a
*	*Xij	*	*	*	*	*	*Xij
!	!	!	!	!LO:N:vis=0	!	!	!
.	.	.	.	1B;<	-a	.	.
*	*	*	*	*	*Xij	*	*
!LO:LB:g=original	!	!LO:LB:g=original	!	!LO:LB:g=original	!	!LO:LB:g=original	!
=29-	=29-	=29-	=29-	=29-	=29-	=29-	=29-
1.E	O-	2.E/	O-	1.B	O-	0r	.
.	.	4F/	.	.	.	.	.
.	.	2G/	.	.	.	.	.
4D/	.	1A\	-ſan-	2c/	-ſan-	.	.
4C/	.	.	.	.	.	.	.
=30-	=30-	=30-	=30-	=30-	=30-	=30-	=30-
1BB	-ſan-	.	.	1d	-na	1B	O-
.	.	2G/	.	.	.	.	.
1AA	-na	0A	-na	2c/	.	4c\	.
.	.	.	.	.	.	4d\	.
.	.	.	.	1c\	in	1e\	-ſan-
=31-	=31-	=31-	=31-	=31-	=31-	=31-	=31-
2r	.	.	.	.	.	.	.
2D/	in	.	.	1f	ex-	2d\	-na
1F	ex-	1A	in	.	.	1c	.
.	.	.	.	2f\	-cel-	.	.
=32-	=32-	=32-	=32-	=32-	=32-	=32-	=32-
1C	-cel-	2.c\	ex-	1e	-ſis	2r	.
.	.	.	.	.	.	2e\	in
.	.	4B\	.	.	.	.	.
2D/	-ſis	2A/	.	2r	.	2f\	ex-
*	*	*	*	*	*ij	*	*
2E\	.	2G/	.	2.e\	in	4e\	.
.	.	.	.	.	.	4d\	.
=33-	=33-	=33-	=33-	=33-	=33-	=33-	=33-
2AA/	.	2A/	.	.	.	4c/	.
.	.	.	.	4d\	.	4B/	.
2C/	.	2G/	.	4c/	.	1e	.
.	.	.	.	4B/	.	.	.
1D	.	1F	-cel-	2A/	.	.	.
.	.	.	.	2A/	ex-	2d\	-cel-
=34-	=34-	=34-	=34-	=34-	=34-	=34-	=34-
!	!	!LO:SIC:v:t=custos A	!	!	!	!LO:SIC:v:t=custos f	!
2AA/	.	00E;	-ſis	1A	-cel-	00e;<	-ſis
2AA/	.	.	.	.	.	.	.
2C/	.	.	.	2E/	.	.	.
2AA/	.	.	.	1A/	.	.	.
!	!	!	!	!	!	!LO:LB:g=original	!
=35-	=35-	=35-	=35-	=35-	=35-	=35-	=35-
0E;<	.	.	.	.	.	.	.
.	.	.	.	4G/	.	.	.
.	.	.	.	4F/	.	.	.
!	!	!	!	!LO:SIC:v:t=custos d	!	!	!
!	!	!	!	!LO:N:vis=0	!	!	!
.	.	.	.	1G;	-ſis	.	.
*	*	*	*	*	*Xij	*	*
!LO:LB:g=original	!	!LO:LB:g=original	!	!	!	!	!
=36-	=36-	=36-	=36-	=36-	=36-	=36-	=36-
0r	.	1A	Be-	1d	Be-	1f	Be-
.	.	2A/	-ne-	2.d\	-ne-	2f\	-ne-
.	.	2A/	-dic-	.	.	2f\	-dic-
.	.	.	.	4c/	-dic-	.	.
=37-	=37-	=37-	=37-	=37-	=37-	=37-	=37-
0r	.	2G/	-tus	2B/	-t(us)	2e\	-tus
.	.	2A/	qui	1A	qui	2d\	qui
.	.	1B	Ve-	.	.	1e	ve-
.	.	.	.	2G/	ve-	.	.
=38-	=38-	=38-	=38-	=38-	=38-	=38-	=38-
1D	Be-	0A	-nit	2A/	-nit	2f\	-nit
*	*	*	*	*	*ij	*	*ij
.	.	.	.	2f\	be-	2d\	be-
2D/	-ne-	.	.	2f\	-ne-	2d\	-ne-
2D/	-di-	.	.	2f\	-dic-	2d\	-dic-
=39-	=39-	=39-	=39-	=39-	=39-	=39-	=39-
2C/	-ctus	0r	.	2g\	-t(us)	2e\	-tus
2D/	qui	.	.	2f\	qui	4d\	qui
.	.	.	.	.	.	4c\	.
1E	ve-	.	.	1e	ve-	1B	ve-
=40-	=40-	=40-	=40-	=40-	=40-	=40-	=40-
0AA	-nit	1c	in	2c/	-nit	1A	-nit
*	*	*	*	*	*Xij	*	*Xij
.	.	.	.	2e\	in	.	.
.	.	2c\	no-	2e\	no-	1r	.
.	.	2c\	-mi-	2e\	-mi-	.	.
=41-	=41-	=41-	=41-	=41-	=41-	=41-	=41-
0r	.	2B\	-ne	4d/	-ne	1r	.
.	.	.	.	4c/	.	.	.
.	.	1A	do-	4B/	Do-	.	.
.	.	.	.	4A/	.	.	.
!	!	!	!	!LO:SIC:v:t=custos A	!	!	!
.	.	.	.	1B	-mi-	2r	.
!	!	!LO:SIC:v:t=custos A	!	!	!	!	!
.	.	2G/	-mi-	.	.	2e\	in
!	!	!LO:LB:g=original	!	!LO:PB:g=original	!	!	!
=42-	=42-	=42-	=42-	=42-	=42-	=42-	=42-
2r	.	1A	-ni	2A/	-ni	2c/	no-
*	*	*	*	*	*ij	*	*
!	!	!	!	!	!	!LO:SIC:v:t=custos e	!
2A\	in	.	.	2c/	in	2f\	-mi-
!	!	!	!	!	!	!LO:LB:g=original	!
2A\	no-	1r	.	2c/	no-	1e	-ne
!LO:SIC:v:t=custos D	!	!	!	!	!	!	!
2A\	-mi-	.	.	2c/	-mi-	.	.
!LO:LB:g=original	!	!	!	!	!	!	!
=43-	=43-	=43-	=43-	=43-	=43-	=43-	=43-
2D/	-ne	0r	.	4B/	-ne	4d/	do-
.	.	.	.	4A/	.	4c/	.
2F\	do-	.	.	1A	Do-	4B/	.
.	.	.	.	.	.	4A/	.
1E	-mi-	.	.	.	.	1B	-mi-
.	.	.	.	2G/	-mi-	.	.
=44-	=44-	=44-	=44-	=44-	=44-	=44-	=44-
2AA/	-ni	2r	.	1A	-ni	2A/	-ni
*	*ij	*	*	*	*Xij	*	*ij
2F\	in	2A/	in	.	.	2c/	in
2F\	no-	2A/	no-	1r	.	2c/	no-
2D/	-mi-	2A/	-mi-	.	.	2d\	-mi-
=45-	=45-	=45-	=45-	=45-	=45-	=45-	=45-
2D/	-ne	2D/	-ne	2r	.	2f\	-ne
2C/	do-	2E/	do-	2A/	in	1e	do-
1D	-mi-	1F	-mi-	2A/	no-	.	.
.	.	.	.	2A/	-mi-	2d\	-mi-
=46-	=46-	=46-	=46-	=46-	=46-	=46-	=46-
2AA/	-ni	00.E;	-ni	1c	-ne	00.e;<	-ni
*	*	*	*	*	*	*	*
2AA/	in	.	.	.	.	.	.
2GG/	no-	.	.	2B/	.	.	.
2AA/	-mi-	.	.	1A/	Do-	.	.
=47-	=47-	=47-	=47-	=47-	=47-	=47-	=47-
1E	-ne	.	.	.	.	.	.
.	.	.	.	2G/	-mi-	.	.
1AA	do-	.	.	2A/	-ni	.	.
*	*	*	*	*	*ij	*	*
.	.	.	.	1c\	Do-	.	.
=48-	=48-	=48-	=48-	=48-	=48-	=48-	=48-
1AA	-mi-	.	.	.	.	.	.
.	.	.	.	2c/	-mi-	.	.
!LO:N:vis=0	!	!	!	!LO:N:vis=0	!	!	!
1E;<	-ni	.	.	1B;	-ni	.	.
*	*Xij	*	*	*	*Xij	*	*
=||	=||	=||	=||	=||	=||	=||	=||
*-	*-	*-	*-	*-	*-	*-	*-
!!!RDF**kern: < = below
!!!system-decoration: [(s1,s2,s3,s4)]
!!!ENC: Mateusz Solarz
!!!END: 2022-02-16
!!!AIN: 1 alto 1 bass 1 soprn 1 tenor
!!!ENC: Urszula Świątek
!!!END: 2022-02-23
